X: 1
T: The Showman's Fancy
R: hornpipe
M: 4/4
L: 1/8
K: Dmaj
FG|:AFAB A2fd|B2gf edcB|AFAB AFDF|EDEF E2DF|
AFAB A2fd|B2gf edcB|Adfa gece|1 d2dc d2FG:|2 d2dc d2cd||
|:e~e2f gece|dcde fdAd|(3gag (3fgf (3efe (3ded|c2 (3BcB AGFG|
AFAB A2fd|B2gf edcB|Adfa gece|d2dc d2cd:|


Tune 1777	Setting 15223

